symbolic/24x24/apps/texmaker.svg

<svg xmlns="http://www.w3.org/2000/svg" width="24" height="24" version="1">
 <path style="opacity:0.2" d="M 3.9999631,5.5002582 A 2.0001631,2.0001631 0 0 0 2,7.5002213 v 1.9999631 a 2.0001631,2.0001631 0 0 0 1.4999724,1.9345346 v 4.065355 a 2.0001631,2.0001631 0 0 0 1.9999631,1.999963 h 1.9999631 a 2.0001631,2.0001631 0 0 0 0.4999908,-0.0664 v 0.0664 A 2.0001631,2.0001631 0 0 0 9.9998525,19.5 H 14.99976 a 2.0001631,2.0001631 0 0 0 1.999963,-1.999963 h 0.66698 a 2.0001631,2.0001631 0 0 0 0.832993,-0.184567 2.0001631,2.0001631 0 0 0 0.832992,0.184567 h 1.666962 a 2.0001631,2.0001631 0 0 0 1.875942,-2.69331 l -1.233376,-3.336852 1.22947,-3.2645887 A 2.0001631,2.0001631 0 0 0 20.99965,5.5002582 H 19.332688 A 2.0001631,2.0001631 0 0 0 18.499696,5.6848253 2.0001631,2.0001631 0 0 0 17.666703,5.5002582 h -1.666961 a 2.0001631,2.0001631 0 0 0 -1.99801,1.9999631 H 10.999834 A 2.0001631,2.0001631 0 0 0 8.9998709,5.5002582 Z"/>
 <path style="fill:#31984b" d="M 3.9999631,5.0002674 A 2.0001631,2.0001631 0 0 0 2,7.0002305 v 1.9999631 a 2.0001631,2.0001631 0 0 0 1.4999724,1.9345344 v 4.065355 a 2.0001631,2.0001631 0 0 0 1.9999631,1.999963 h 1.9999631 a 2.0001631,2.0001631 0 0 0 0.4999908,-0.0664 v 0.0664 a 2.0001631,2.0001631 0 0 0 1.9999631,1.999963 H 14.99976 a 2.0001631,2.0001631 0 0 0 1.999963,-1.999963 h 0.66698 a 2.0001631,2.0001631 0 0 0 0.832993,-0.184567 2.0001631,2.0001631 0 0 0 0.832992,0.184567 h 1.666962 a 2.0001631,2.0001631 0 0 0 1.875942,-2.69331 l -1.233376,-3.336852 1.22947,-3.2645885 A 2.0001631,2.0001631 0 0 0 20.99965,5.0002674 H 19.332688 A 2.0001631,2.0001631 0 0 0 18.499696,5.1848345 2.0001631,2.0001631 0 0 0 17.666703,5.0002674 h -1.666961 a 2.0001631,2.0001631 0 0 0 -1.99801,1.9999631 H 10.999834 A 2.0001631,2.0001631 0 0 0 8.9998709,5.0002674 Z"/>
 <path style="opacity:0.2" d="M 3.9999631,7.5002213 V 9.5001844 H 5.4999355 V 15.500074 H 7.4998986 V 9.5001844 H 8.9998709 V 7.5002213 Z m 11.9997789,0 1.49216,3.9637937 -1.49216,4.036059 h 1.666961 l 0.832993,-1.999963 0.832992,1.999963 H 20.99965 L 19.50749,11.464015 20.99965,7.5002213 H 19.332688 L 18.499696,9.5001844 17.666703,7.5002213 Z M 9.9998525,9.5001844 V 17.500037 H 14.99976 V 15.500074 H 11.999816 V 14.500092 H 14.99976 V 12.500129 H 11.999816 V 11.500148 H 14.99976 V 9.5001844 Z"/>
 <path style="fill:#ffffff" d="M 3.9999631,7.0002305 V 9.0001936 H 5.4999355 V 15.000083 H 7.4998986 V 9.0001936 H 8.9998709 V 7.0002305 Z m 11.9997789,0 1.49216,3.9637935 -1.49216,4.036059 h 1.666961 l 0.832993,-1.999963 0.832992,1.999963 H 20.99965 L 19.50749,10.964024 20.99965,7.0002305 H 19.332688 L 18.499696,9.0001936 17.666703,7.0002305 Z M 9.9998525,9.0001936 V 17.000046 H 14.99976 V 15.000083 H 11.999816 V 14.000101 H 14.99976 V 12.000138 H 11.999816 V 11.000157 H 14.99976 V 9.0001936 Z"/>
 <path style="opacity:0.1;fill:#ffffff" d="M 3.9999631,5.0002674 A 2.0001631,2.0001631 0 0 0 2,7.0002305 V 7.5002213 A 2.0001631,2.0001631 0 0 1 3.9999631,5.5002582 h 4.9999078 a 2.0001631,2.0001631 0 0 1 1.9999631,1.9999631 h 3.001898 a 2.0001631,2.0001631 0 0 1 1.99801,-1.9999631 h 1.666961 a 2.0001631,2.0001631 0 0 1 0.832993,0.1845671 2.0001631,2.0001631 0 0 1 0.832992,-0.1845671 H 20.99965 A 2.0001631,2.0001631 0 0 1 22.982035,7.2472964 2.0001631,2.0001631 0 0 0 20.99965,5.0002674 H 19.332688 A 2.0001631,2.0001631 0 0 0 18.499696,5.1848345 2.0001631,2.0001631 0 0 0 17.666703,5.0002674 h -1.666961 a 2.0001631,2.0001631 0 0 0 -1.99801,1.9999631 H 10.999834 A 2.0001631,2.0001631 0 0 0 8.9998709,5.0002674 Z m 17.7360009,6.2215646 -0.09375,0.248043 1.233376,3.336852 a 2.0001631,2.0001631 0 0 1 0.10742,0.433586 2.0001631,2.0001631 0 0 0 -0.10742,-0.933577 z"/>
</svg>

<svg xmlns="http://www.w3.org/2000/svg" width="24" height="24" version="1"><path style="opacity:.2" d="M4 5.5a2 2 0 0 0-2 2v2a2 2 0 0 0 1.5 1.935V15.5a2 2 0 0 0 2 2h2a2 2 0 0 0 .5-.066v.066a2 2 0 0 0 2 2h5a2 2 0 0 0 2-2h.667a2 2 0 0 0 .833-.185 2 2 0 0 0 .833.185H21a2 2 0 0 0 1.876-2.693l-1.234-3.337 1.23-3.265A2 2 0 0 0 21 5.5h-1.667a2 2 0 0 0-.833.185 2 2 0 0 0-.833-.185H16a2 2 0 0 0-1.998 2H11a2 2 0 0 0-2-2z"/><path style="fill:#31984b" d="M4 5a2 2 0 0 0-2 2v2a2 2 0 0 0 1.5 1.935V15a2 2 0 0 0 2 2h2a2 2 0 0 0 .5-.066V17a2 2 0 0 0 2 2h5a2 2 0 0 0 2-2h.667a2 2 0 0 0 .833-.185 2 2 0 0 0 .833.185H21a2 2 0 0 0 1.876-2.693l-1.234-3.337 1.23-3.265A2 2 0 0 0 21 5h-1.667a2 2 0 0 0-.833.185A2 2 0 0 0 17.667 5H16a2 2 0 0 0-1.998 2H11a2 2 0 0 0-2-2z"/><path style="opacity:.2" d="M4 7.5v2h1.5v6h2v-6H9v-2zm12 0 1.492 3.964L16 15.5h1.667l.833-2 .833 2H21l-1.493-4.036L21 7.5h-1.667l-.833 2-.833-2zm-6 2v8h5v-2h-3v-1h3v-2h-3v-1h3v-2z"/><path style="fill:#fff" d="M4 7v2h1.5v6h2V9H9V7zm12 0 1.492 3.964L16 15h1.667l.833-2 .833 2H21l-1.493-4.036L21 7h-1.667L18.5 9l-.833-2zm-6 2v8h5v-2h-3v-1h3v-2h-3v-1h3V9z"/><path style="opacity:.1;fill:#fff" d="M4 5a2 2 0 0 0-2 2v.5a2 2 0 0 1 2-2h5a2 2 0 0 1 2 2h3.002A2 2 0 0 1 16 5.5h1.667a2 2 0 0 1 .833.185 2 2 0 0 1 .833-.185H21a2 2 0 0 1 1.982 1.747A2 2 0 0 0 21 5h-1.667a2 2 0 0 0-.833.185A2 2 0 0 0 17.667 5H16a2 2 0 0 0-1.998 2H11a2 2 0 0 0-2-2zm17.736 6.222-.094.248 1.234 3.337a2 2 0 0 1 .107.433 2 2 0 0 0-.107-.933z"/></svg>
